; generated by PrusaSlicer 2.2.0+win64 on 2020-12-11 at 19:14:17 UTC

; 

; external perimeters extrusion width = 0.60mm
; perimeters extrusion width = 0.60mm
; infill extrusion width = 0.60mm
; solid infill extrusion width = 0.60mm
; top infill extrusion width = 0.60mm
; support material extrusion width = 0.35mm
; first layer extrusion width = 0.60mm

M201 X9000 Y9000 Z500 E10000 ; sets maximum accelerations, mm/sec^2
M203 X500 Y500 Z12 E120 ; sets maximum feedrates, mm/sec
M204 P1500 R1500 T1500 ; sets acceleration (P, T) and retract acceleration (R), mm/sec^2
M205 X10.00 Y10.00 Z0.20 E2.50 ; sets the jerk limits, mm/sec
M205 S0 T0 ; sets the minimum extruding and travel feed rate, mm/sec
M107
M190 S60 ; set bed temperature and wait for it to be reached
G28 ; home all axes
M420 S1 ;Retrieve mesh
G1 Z5 F5000 ; lift nozzle
M106 S255

M109 S215 ;WAIT till it reaches first layer temperature

; START- PRIME NOZZLE
G1 X5.1 Y40 Z0.15 F5000.0 ;Move to start position
G1 X5.1 Y200.0 Z0.15 F1500.0 E15 ;Draw the first line
G1 X5.4 Y200.0 Z0.28 F5000.0 ;Move to side a little
G1 X5.4 Y40 Z0.28 F1500.0 E30 ;Draw the second line
;END - PRIME NOZZLE

G21 ; set units to millimeters
G90 ; use absolute coordinates
M82 ; use absolute distances for extrusion
G92 E0
; Filament gcode
M106 S255
;LAYER:0
M117 Layer number: 0
G1 E-2.00000 F1800.00000
G92 E0
G1 Z0.200 F7800.000
G1 Z0.300
G1 Z0.500
G1 X62.810 Y91.568
G1 Z0.300
G1 E2.00000 F1800.00000
G1 F2400.000
G1 X63.912 Y91.077 E2.08062
G1 X64.941 Y90.929 E2.15004
G1 X74.005 Y90.929 E2.75558
G1 X74.788 Y91.006 E2.80811
G1 X75.545 Y91.233 E2.86098
G1 X76.241 Y91.601 E2.91352
G1 X76.852 Y92.095 E2.96605
G1 X168.066 Y183.321 E11.58425
G1 X168.452 Y183.841 E11.62750
G1 X168.748 Y184.411 E11.67041
G1 X168.952 Y185.020 E11.71333
G1 X169.057 Y185.654 E11.75624
G1 X169.070 Y195.105 E12.38758
G1 X168.963 Y195.934 E12.44343
G1 X168.686 Y196.728 E12.49961
G1 X168.253 Y197.448 E12.55579
G1 X167.680 Y198.065 E12.61197
G1 X167.097 Y198.490 E12.66019
G1 X166.452 Y198.803 E12.70808
G1 X165.758 Y199.000 E12.75631
G1 X165.039 Y199.071 E12.80453
G1 X64.985 Y199.071 E19.48870
G1 X64.129 Y198.977 E19.54621
G1 X63.308 Y198.703 E19.60404
G1 X62.567 Y198.265 E19.66155
G1 X61.935 Y197.680 E19.71905
G1 X61.510 Y197.097 E19.76727
G1 X61.197 Y196.452 E19.81517
G1 X61.000 Y195.758 E19.86339
G1 X60.929 Y195.039 E19.91161
G1 X60.955 Y94.542 E26.62536
G1 X61.264 Y93.381 E26.70566
G1 X61.903 Y92.357 E26.78628
G1 X62.765 Y91.607 E26.86257
G1 X63.113 Y92.019 F7800.000
G1 F2400.000
G1 X63.152 Y91.986 E26.86604
G1 X64.138 Y91.571 E26.93745
G1 X64.960 Y91.465 E26.99287
G1 X74.005 Y91.464 E27.59708
G1 X74.683 Y91.531 E27.64263
G1 X75.341 Y91.728 E27.68849
G1 X75.948 Y92.049 E27.73435
G1 X76.481 Y92.481 E27.78020
G1 X167.656 Y183.666 E36.39461
G1 X168.258 Y184.626 E36.47031
G1 X168.525 Y185.727 E36.54602
G1 X168.535 Y195.084 E37.17107
G1 X168.443 Y195.806 E37.21971
G1 X168.203 Y196.498 E37.26865
G1 X167.828 Y197.122 E37.31729
G1 X167.333 Y197.656 E37.36593
G1 X166.828 Y198.026 E37.40777
G1 X166.261 Y198.303 E37.44992
G1 X165.654 Y198.475 E37.49207
G1 X165.030 Y198.535 E37.53391
G1 X64.991 Y198.536 E44.21710
G1 X64.249 Y198.455 E44.26697
G1 X63.536 Y198.218 E44.31715
G1 X62.893 Y197.839 E44.36702
G1 X62.344 Y197.333 E44.41689
G1 X61.974 Y196.828 E44.45873
G1 X61.697 Y196.261 E44.50088
G1 X61.525 Y195.654 E44.54303
G1 X61.465 Y195.030 E44.58487
G1 X61.485 Y94.615 E51.29315
G1 X61.761 Y93.582 E51.36456
G1 X62.336 Y92.676 E51.43628
G1 X63.067 Y92.058 E51.50022
G1 E49.50022 F1800.00000
G92 E0
G1 Z0.500 F7800.000
G1 X66.371 Y96.371
G1 Z0.300
G1 E2.00000 F1800.00000
G1 F2400.000
G1 X72.629 Y96.371 E2.41804
G1 X72.629 Y187.315 E8.49358
G1 X72.646 Y187.315 E8.49472
G1 X72.646 Y187.371 E8.49847
G1 X163.629 Y187.371 E14.57662
G1 X163.629 Y193.629 E14.99466
G1 X66.371 Y193.629 E21.49199
G1 X66.371 Y96.431 E27.98531
G1 E25.98531 F1800.00000
G92 E0
G1 Z0.500 F7800.000
G1 X73.164 Y186.780
G1 Z0.300
G1 E2.00000 F1800.00000
G1 F2400.000
G1 X73.182 Y186.780 E2.00114
G1 X73.182 Y186.836 E2.00489
G1 X164.164 Y186.836 E8.08304
G1 X164.164 Y194.164 E8.57264
G1 X65.836 Y194.164 E15.14154
G1 X65.836 Y95.836 E21.71043
G1 X73.164 Y95.836 E22.20003
G1 X73.164 Y186.720 E28.27157
G1 X73.717 Y186.300 F7800.000
G1 F2400.000
G1 X164.700 Y186.300 E34.34971
G1 X164.700 Y194.700 E34.91088
G1 X65.300 Y194.700 E41.55134
G1 X65.300 Y95.300 E48.19179
G1 X73.700 Y95.300 E48.75296
G1 X73.700 Y186.244 E54.82850
G1 X73.713 Y186.244 E54.82939
G1 X73.717 Y186.700 F7800.000
G1 E52.82939 F1800.00000
G92 E0
G1 Z0.500 F7800.000
G1 X77.539 Y193.468
G1 Z0.300
G1 E2.00000 F1800.00000
G1 F2400.000
G1 X66.773 Y182.702 E3.02432
G1 X66.773 Y183.465 E3.07564
G1 X76.535 Y193.227 E4.00445
G1 X75.773 Y193.227 E4.05577
G1 X66.773 Y184.227 E4.91200
G1 X66.773 Y184.990 E4.96332
G1 X75.010 Y193.227 E5.74698
G1 X74.247 Y193.227 E5.79830
G1 X66.773 Y185.753 E6.50939
G1 X66.773 Y186.516 E6.56070
G1 X73.484 Y193.227 E7.19922
G1 X72.721 Y193.227 E7.25053
G1 X66.773 Y187.279 E7.81647
G1 X66.773 Y188.042 E7.86779
G1 X71.958 Y193.227 E8.36115
G1 X71.196 Y193.227 E8.41247
G1 X66.773 Y188.804 E8.83325
G1 X66.773 Y189.567 E8.88457
G1 X70.433 Y193.227 E9.23278
G1 X69.670 Y193.227 E9.28410
G1 X66.773 Y190.330 E9.55973
G1 X66.773 Y191.093 E9.61105
G1 X68.907 Y193.227 E9.81411
G1 X68.144 Y193.227 E9.86543
G1 X66.773 Y191.856 E9.99592
G1 X66.773 Y192.618 E10.04723
G1 X67.623 Y193.468 E10.12808
G1 E8.12808 F1800.00000
G92 E0
G1 Z0.500 F7800.000
G1 X163.468 Y188.623
G1 Z0.300
G1 E2.00000 F1800.00000
G1 F2400.000
G1 X162.618 Y187.773 E2.08084
G1 X161.856 Y187.773 E2.13216
G1 X163.227 Y189.144 E2.26264
G1 X163.227 Y189.907 E2.31396
G1 X161.093 Y187.773 E2.51702
G1 X160.330 Y187.773 E2.56834
G1 X163.227 Y190.670 E2.84397
G1 X163.227 Y191.433 E2.89529
G1 X159.567 Y187.773 E3.24350
G1 X158.804 Y187.773 E3.29482
G1 X163.227 Y192.196 E3.71561
G1 X163.227 Y192.958 E3.76692
G1 X158.042 Y187.773 E4.26028
G1 X157.279 Y187.773 E4.31160
G1 X162.733 Y193.227 E4.83052
G1 X161.970 Y193.227 E4.88183
G1 X156.516 Y187.773 E5.40075
G1 X155.753 Y187.773 E5.45207
G1 X161.207 Y193.227 E5.97098
G1 X160.444 Y193.227 E6.02230
G1 X154.990 Y187.773 E6.54122
G1 X154.227 Y187.773 E6.59253
G1 X159.682 Y193.227 E7.11145
G1 X158.919 Y193.227 E7.16277
G1 X153.465 Y187.773 E7.68168
G1 X152.702 Y187.773 E7.73300
G1 X158.156 Y193.227 E8.25191
G1 X157.393 Y193.227 E8.30323
G1 X151.939 Y187.773 E8.82215
G1 X151.176 Y187.773 E8.87347
G1 X156.630 Y193.227 E9.39238
G1 X155.868 Y193.227 E9.44370
G1 X150.413 Y187.773 E9.96261
G1 X149.651 Y187.773 E10.01393
G1 X155.105 Y193.227 E10.53285
G1 X154.342 Y193.227 E10.58416
G1 X148.888 Y187.773 E11.10308
G1 X148.125 Y187.773 E11.15440
G1 X153.579 Y193.227 E11.67331
G1 X152.816 Y193.227 E11.72463
G1 X147.362 Y187.773 E12.24354
G1 X146.599 Y187.773 E12.29486
G1 X152.054 Y193.227 E12.81378
G1 X151.291 Y193.227 E12.86510
G1 X145.837 Y187.773 E13.38401
G1 X145.074 Y187.773 E13.43533
G1 X150.528 Y193.227 E13.95424
G1 X149.765 Y193.227 E14.00556
G1 X144.311 Y187.773 E14.52448
G1 X143.548 Y187.773 E14.57580
G1 X149.002 Y193.227 E15.09471
G1 X148.239 Y193.227 E15.14603
G1 X142.785 Y187.773 E15.66494
G1 X142.023 Y187.773 E15.71626
G1 X147.477 Y193.227 E16.23518
G1 X146.714 Y193.227 E16.28649
G1 X141.260 Y187.773 E16.80541
G1 X140.497 Y187.773 E16.85673
G1 X145.951 Y193.227 E17.37564
G1 X145.188 Y193.227 E17.42696
G1 X139.734 Y187.773 E17.94587
G1 X138.971 Y187.773 E17.99719
G1 X144.425 Y193.227 E18.51611
G1 X143.663 Y193.227 E18.56743
G1 X138.208 Y187.773 E19.08634
G1 X137.446 Y187.773 E19.13766
G1 X142.900 Y193.227 E19.65657
G1 X142.137 Y193.227 E19.70789
G1 X136.683 Y187.773 E20.22681
G1 X135.920 Y187.773 E20.27812
G1 X141.374 Y193.227 E20.79704
G1 X140.611 Y193.227 E20.84836
G1 X135.157 Y187.773 E21.36727
G1 X134.394 Y187.773 E21.41859
G1 X139.849 Y193.227 E21.93750
G1 X139.086 Y193.227 E21.98882
G1 X133.632 Y187.773 E22.50774
G1 X132.869 Y187.773 E22.55906
G1 X138.323 Y193.227 E23.07797
G1 X137.560 Y193.227 E23.12929
G1 X132.106 Y187.773 E23.64820
G1 X131.343 Y187.773 E23.69952
G1 X136.797 Y193.227 E24.21844
G1 X136.034 Y193.227 E24.26976
G1 X130.580 Y187.773 E24.78867
G1 X129.818 Y187.773 E24.83999
G1 X135.272 Y193.227 E25.35890
G1 X134.509 Y193.227 E25.41022
G1 X129.055 Y187.773 E25.92914
G1 X128.292 Y187.773 E25.98045
G1 X133.746 Y193.227 E26.49937
G1 X132.983 Y193.227 E26.55069
G1 X127.529 Y187.773 E27.06960
G1 X126.766 Y187.773 E27.12092
G1 X132.220 Y193.227 E27.63984
G1 X131.458 Y193.227 E27.69115
G1 X126.004 Y187.773 E28.21007
G1 X125.241 Y187.773 E28.26139
G1 X130.695 Y193.227 E28.78030
G1 X129.932 Y193.227 E28.83162
G1 X124.478 Y187.773 E29.35053
G1 X123.715 Y187.773 E29.40185
G1 X129.169 Y193.227 E29.92077
G1 X128.406 Y193.227 E29.97209
G1 X122.952 Y187.773 E30.49100
G1 X122.189 Y187.773 E30.54232
G1 X127.644 Y193.227 E31.06123
G1 X126.881 Y193.227 E31.11255
G1 X121.427 Y187.773 E31.63147
G1 X120.664 Y187.773 E31.68278
G1 X126.118 Y193.227 E32.20170
G1 X125.355 Y193.227 E32.25302
G1 X119.901 Y187.773 E32.77193
G1 X119.138 Y187.773 E32.82325
G1 X124.592 Y193.227 E33.34217
G1 X123.830 Y193.227 E33.39348
G1 X118.375 Y187.773 E33.91240
G1 X117.613 Y187.773 E33.96372
G1 X123.067 Y193.227 E34.48263
G1 X122.304 Y193.227 E34.53395
G1 X116.850 Y187.773 E35.05286
G1 X116.087 Y187.773 E35.10418
G1 X121.541 Y193.227 E35.62310
G1 X120.778 Y193.227 E35.67442
G1 X115.324 Y187.773 E36.19333
G1 X114.561 Y187.773 E36.24465
G1 X120.015 Y193.227 E36.76356
G1 X119.253 Y193.227 E36.81488
G1 X113.799 Y187.773 E37.33380
G1 X113.036 Y187.773 E37.38511
G1 X118.490 Y193.227 E37.90403
G1 X117.727 Y193.227 E37.95535
G1 X112.273 Y187.773 E38.47426
G1 X111.510 Y187.773 E38.52558
G1 X116.964 Y193.227 E39.04449
G1 X116.201 Y193.227 E39.09581
G1 X110.747 Y187.773 E39.61473
G1 X109.985 Y187.773 E39.66605
G1 X115.439 Y193.227 E40.18496
G1 X114.676 Y193.227 E40.23628
G1 X109.222 Y187.773 E40.75519
G1 X108.459 Y187.773 E40.80651
G1 X113.913 Y193.227 E41.32543
G1 X113.150 Y193.227 E41.37675
G1 X107.696 Y187.773 E41.89566
G1 X106.933 Y187.773 E41.94698
G1 X112.387 Y193.227 E42.46589
G1 X111.625 Y193.227 E42.51721
G1 X106.170 Y187.773 E43.03613
G1 X105.408 Y187.773 E43.08744
G1 X110.862 Y193.227 E43.60636
G1 X110.099 Y193.227 E43.65768
G1 X104.645 Y187.773 E44.17659
G1 X103.882 Y187.773 E44.22791
G1 X109.336 Y193.227 E44.74682
G1 X108.573 Y193.227 E44.79814
G1 X103.119 Y187.773 E45.31706
G1 X102.356 Y187.773 E45.36838
G1 X107.811 Y193.227 E45.88729
G1 X107.048 Y193.227 E45.93861
G1 X101.594 Y187.773 E46.45752
G1 X100.831 Y187.773 E46.50884
G1 X106.285 Y193.227 E47.02776
G1 X105.522 Y193.227 E47.07908
G1 X100.068 Y187.773 E47.59799
G1 X99.305 Y187.773 E47.64931
G1 X104.759 Y193.227 E48.16822
G1 X103.996 Y193.227 E48.21954
G1 X98.542 Y187.773 E48.73846
G1 X97.780 Y187.773 E48.78977
G1 X103.234 Y193.227 E49.30869
G1 X102.471 Y193.227 E49.36001
G1 X97.017 Y187.773 E49.87892
G1 X96.254 Y187.773 E49.93024
G1 X101.708 Y193.227 E50.44915
G1 X100.945 Y193.227 E50.50047
G1 X95.491 Y187.773 E51.01939
G1 X94.728 Y187.773 E51.07071
G1 X100.182 Y193.227 E51.58962
G1 X99.420 Y193.227 E51.64094
G1 X93.966 Y187.773 E52.15985
G1 X93.203 Y187.773 E52.21117
G1 X98.657 Y193.227 E52.73009
G1 X97.894 Y193.227 E52.78141
G1 X92.440 Y187.773 E53.30032
G1 X91.677 Y187.773 E53.35164
G1 X97.131 Y193.227 E53.87055
G1 X96.368 Y193.227 E53.92187
G1 X90.914 Y187.773 E54.44079
G1 X90.151 Y187.773 E54.49210
G1 X95.606 Y193.227 E55.01102
G1 X94.843 Y193.227 E55.06234
G1 X89.389 Y187.773 E55.58125
G1 X88.626 Y187.773 E55.63257
G1 X94.080 Y193.227 E56.15148
G1 X93.317 Y193.227 E56.20280
G1 X87.863 Y187.773 E56.72172
G1 X87.100 Y187.773 E56.77304
G1 X92.554 Y193.227 E57.29195
G1 X91.792 Y193.227 E57.34327
G1 X86.337 Y187.773 E57.86218
G1 X85.575 Y187.773 E57.91350
G1 X91.029 Y193.227 E58.43242
G1 X90.266 Y193.227 E58.48374
G1 X84.812 Y187.773 E59.00265
G1 X84.049 Y187.773 E59.05397
G1 X89.503 Y193.227 E59.57288
G1 X88.740 Y193.227 E59.62420
G1 X83.286 Y187.773 E60.14312
G1 X82.523 Y187.773 E60.19443
G1 X87.977 Y193.227 E60.71335
G1 X87.215 Y193.227 E60.76467
G1 X81.761 Y187.773 E61.28358
G1 X80.998 Y187.773 E61.33490
G1 X86.452 Y193.227 E61.85381
G1 X85.689 Y193.227 E61.90513
G1 X80.235 Y187.773 E62.42405
G1 X79.472 Y187.773 E62.47537
G1 X84.926 Y193.227 E62.99428
G1 X84.163 Y193.227 E63.04560
G1 X78.709 Y187.773 E63.56451
G1 X77.947 Y187.773 E63.61583
G1 X83.401 Y193.227 E64.13475
G1 X82.638 Y193.227 E64.18607
G1 X77.184 Y187.773 E64.70498
G1 X76.421 Y187.773 E64.75630
G1 X81.875 Y193.227 E65.27521
G1 X81.112 Y193.227 E65.32653
G1 X75.658 Y187.773 E65.84545
G1 X74.895 Y187.773 E65.89676
G1 X80.349 Y193.227 E66.41568
G1 X79.587 Y193.227 E66.46700
G1 X74.132 Y187.773 E66.98591
G1 X73.370 Y187.773 E67.03723
G1 X78.824 Y193.227 E67.55615
G1 X78.061 Y193.227 E67.60746
G1 X66.773 Y181.939 E68.68143
G1 X66.773 Y181.176 E68.73274
G1 X72.227 Y186.630 E69.25166
G1 X72.227 Y185.868 E69.30298
G1 X66.773 Y180.413 E69.82189
G1 X66.773 Y179.651 E69.87321
G1 X72.227 Y185.105 E70.39212
G1 X72.227 Y184.342 E70.44344
G1 X66.773 Y178.888 E70.96236
G1 X66.773 Y178.125 E71.01368
G1 X72.227 Y183.579 E71.53259
G1 X72.227 Y182.816 E71.58391
G1 X66.773 Y177.362 E72.10282
G1 X66.773 Y176.599 E72.15414
G1 X72.227 Y182.053 E72.67306
G1 X72.227 Y181.291 E72.72437
G1 X66.773 Y175.837 E73.24329
G1 X66.773 Y175.074 E73.29461
G1 X72.227 Y180.528 E73.81352
G1 X72.227 Y179.765 E73.86484
G1 X66.773 Y174.311 E74.38376
G1 X66.773 Y173.548 E74.43507
G1 X72.227 Y179.002 E74.95399
G1 X72.227 Y178.239 E75.00531
G1 X66.773 Y172.785 E75.52422
G1 X66.773 Y172.023 E75.57554
G1 X72.227 Y177.477 E76.09445
G1 X72.227 Y176.714 E76.14577
G1 X66.773 Y171.260 E76.66469
G1 X66.773 Y170.497 E76.71601
G1 X72.227 Y175.951 E77.23492
G1 X72.227 Y175.188 E77.28624
G1 X66.773 Y169.734 E77.80515
G1 X66.773 Y168.971 E77.85647
G1 X72.227 Y174.425 E78.37539
G1 X72.227 Y173.663 E78.42671
G1 X66.773 Y168.208 E78.94562
G1 X66.773 Y167.446 E78.99694
G1 X72.227 Y172.900 E79.51585
G1 X72.227 Y172.137 E79.56717
G1 X66.773 Y166.683 E80.08609
G1 X66.773 Y165.920 E80.13740
G1 X72.227 Y171.374 E80.65632
G1 X72.227 Y170.611 E80.70764
G1 X66.773 Y165.157 E81.22655
G1 X66.773 Y164.394 E81.27787
G1 X72.227 Y169.849 E81.79678
G1 X72.227 Y169.086 E81.84810
G1 X66.773 Y163.632 E82.36702
G1 X66.773 Y162.869 E82.41834
G1 X72.227 Y168.323 E82.93725
G1 X72.227 Y167.560 E82.98857
G1 X66.773 Y162.106 E83.50748
G1 X66.773 Y161.343 E83.55880
G1 X72.227 Y166.797 E84.07772
G1 X72.227 Y166.034 E84.12904
G1 X66.773 Y160.580 E84.64795
G1 X66.773 Y159.818 E84.69927
G1 X72.227 Y165.272 E85.21818
G1 X72.227 Y164.509 E85.26950
G1 X66.773 Y159.055 E85.78842
G1 X66.773 Y158.292 E85.83973
G1 X72.227 Y163.746 E86.35865
G1 X72.227 Y162.983 E86.40997
G1 X66.773 Y157.529 E86.92888
G1 X66.773 Y156.766 E86.98020
G1 X72.227 Y162.220 E87.49912
G1 X72.227 Y161.458 E87.55043
G1 X66.773 Y156.004 E88.06935
G1 X66.773 Y155.241 E88.12067
G1 X72.227 Y160.695 E88.63958
G1 X72.227 Y159.932 E88.69090
G1 X66.773 Y154.478 E89.20981
G1 X66.773 Y153.715 E89.26113
G1 X72.227 Y159.169 E89.78005
G1 X72.227 Y158.406 E89.83137
G1 X66.773 Y152.952 E90.35028
G1 X66.773 Y152.189 E90.40160
G1 X72.227 Y157.644 E90.92051
G1 X72.227 Y156.881 E90.97183
G1 X66.773 Y151.427 E91.49075
G1 X66.773 Y150.664 E91.54206
G1 X72.227 Y156.118 E92.06098
G1 X72.227 Y155.355 E92.11230
G1 X66.773 Y149.901 E92.63121
G1 X66.773 Y149.138 E92.68253
G1 X72.227 Y154.592 E93.20145
G1 X72.227 Y153.830 E93.25276
G1 X66.773 Y148.375 E93.77168
G1 X66.773 Y147.613 E93.82300
G1 X72.227 Y153.067 E94.34191
G1 X72.227 Y152.304 E94.39323
G1 X66.773 Y146.850 E94.91214
G1 X66.773 Y146.087 E94.96346
G1 X72.227 Y151.541 E95.48238
G1 X72.227 Y150.778 E95.53370
G1 X66.773 Y145.324 E96.05261
G1 X66.773 Y144.561 E96.10393
G1 X72.227 Y150.015 E96.62284
G1 X72.227 Y149.253 E96.67416
G1 X66.773 Y143.799 E97.19308
G1 X66.773 Y143.036 E97.24440
G1 X72.227 Y148.490 E97.76331
G1 X72.227 Y147.727 E97.81463
G1 X66.773 Y142.273 E98.33354
G1 X66.773 Y141.510 E98.38486
G1 X72.227 Y146.964 E98.90378
G1 X72.227 Y146.201 E98.95509
