; generated by PrusaSlicer 2.2.0+win64 on 2020-12-12 at 11:55:47 UTC

; 

; external perimeters extrusion width = 0.60mm
; perimeters extrusion width = 0.60mm
; infill extrusion width = 0.60mm
; solid infill extrusion width = 0.60mm
; top infill extrusion width = 0.60mm
; support material extrusion width = 0.35mm
; first layer extrusion width = 0.60mm

M201 X9000 Y9000 Z500 E10000 ; sets maximum accelerations, mm/sec^2
M203 X500 Y500 Z12 E120 ; sets maximum feedrates, mm/sec
M204 P1500 R1500 T1500 ; sets acceleration (P, T) and retract acceleration (R), mm/sec^2
M205 X10.00 Y10.00 Z0.20 E2.50 ; sets the jerk limits, mm/sec
M205 S0 T0 ; sets the minimum extruding and travel feed rate, mm/sec
M107
M190 S60 ; set bed temperature and wait for it to be reached
G28 ; home all axes
M420 S1 ;Retrieve mesh
G1 Z5 F5000 ; lift nozzle
M106 S255

M109 S215 ;WAIT till it reaches first layer temperature

; START- PRIME NOZZLE
G1 X5.1 Y40 Z0.15 F5000.0 ;Move to start position
G1 X5.1 Y200.0 Z0.15 F1500.0 E15 ;Draw the first line
G1 X5.4 Y200.0 Z0.28 F5000.0 ;Move to side a little
G1 X5.4 Y40 Z0.28 F1500.0 E30 ;Draw the second line
;END - PRIME NOZZLE

G21 ; set units to millimeters
G90 ; use absolute coordinates
M82 ; use absolute distances for extrusion
G92 E0
; Filament gcode
M106 S255
;LAYER:0
M117 Layer number: 0
G1 E-2.00000 F1800.00000
G92 E0
G1 Z0.200 F7800.000
G1 Z0.300
G1 Z0.500
G1 X63.318 Y136.793
G1 Z0.300
G1 E2.00000 F1800.00000
G1 F2400.000
G1 X64.474 Y136.463 E2.08030
G1 X165.005 Y136.429 E8.79634
G1 X165.783 Y136.505 E8.84854
G1 X166.532 Y136.728 E8.90074
G1 X167.224 Y137.090 E8.95295
G1 X167.835 Y137.578 E9.00515
G1 X168.341 Y138.173 E9.05735
G1 X168.724 Y138.854 E9.10956
G1 X168.970 Y139.596 E9.16176
G1 X169.069 Y140.376 E9.21429
G1 X169.071 Y149.555 E9.82750
G1 X168.931 Y150.559 E9.89526
G1 X168.456 Y151.653 E9.97489
G1 X167.680 Y152.565 E10.05486
G1 X166.678 Y153.209 E10.13449
G1 X165.526 Y153.537 E10.21446
G1 X64.865 Y153.569 E16.93916
G1 X64.159 Y153.483 E16.98672
G1 X63.473 Y153.274 E17.03461
G1 X62.835 Y152.948 E17.08251
G1 X62.264 Y152.514 E17.13040
G1 X61.780 Y151.992 E17.17796
G1 X61.393 Y151.388 E17.22585
G1 X61.118 Y150.726 E17.27374
G1 X60.963 Y150.026 E17.32163
G1 X60.929 Y140.465 E17.96039
G1 X61.059 Y139.479 E18.02682
G1 X61.531 Y138.369 E18.10745
G1 X62.305 Y137.449 E18.18774
G1 X63.267 Y136.825 E18.26436
G1 X63.533 Y137.283 F7800.000
G1 F2400.000
G1 X64.562 Y136.992 E18.33577
G1 X165.005 Y136.964 E25.04589
G1 X165.679 Y137.030 E25.09113
G1 X166.332 Y137.225 E25.13668
G1 X166.936 Y137.541 E25.18222
G1 X167.468 Y137.968 E25.22777
G1 X167.908 Y138.489 E25.27332
G1 X168.240 Y139.084 E25.31887
G1 X168.450 Y139.728 E25.36411
G1 X168.534 Y140.405 E25.40966
G1 X168.535 Y149.537 E26.01976
G1 X168.434 Y150.342 E26.07395
G1 X168.028 Y151.326 E26.14506
G1 X167.351 Y152.141 E26.21586
G1 X166.458 Y152.721 E26.28697
G1 X165.438 Y153.008 E26.35776
G1 X64.893 Y153.034 E33.07471
G1 X64.271 Y152.960 E33.11655
G1 X63.672 Y152.777 E33.15839
G1 X63.115 Y152.491 E33.20023
G1 X62.620 Y152.115 E33.24176
G1 X62.199 Y151.657 E33.28329
G1 X61.862 Y151.129 E33.32513
G1 X61.624 Y150.550 E33.36697
G1 X61.492 Y149.938 E33.40881
G1 X61.464 Y140.477 E34.04088
G1 X61.560 Y139.685 E34.09414
G1 X61.960 Y138.694 E34.16556
G1 X62.639 Y137.868 E34.23697
G1 X63.483 Y137.316 E34.30437
G1 E32.30437 F1800.00000
G92 E0
G1 Z0.500 F7800.000
G1 X66.371 Y141.871
G1 Z0.300
G1 E2.00000 F1800.00000
G1 F2400.000
G1 X163.629 Y141.871 E8.49733
G1 X163.629 Y148.129 E8.91537
G1 X66.371 Y148.129 E15.41269
G1 X66.371 Y141.931 E15.82672
G1 X65.836 Y141.336 F7800.000
G1 F2400.000
G1 X164.164 Y141.336 E22.39562
G1 X164.164 Y148.664 E22.88522
G1 X65.836 Y148.664 E29.45411
G1 X65.836 Y141.396 E29.93970
G1 X65.300 Y140.800 F7800.000
G1 F2400.000
G1 X164.700 Y140.800 E36.58016
G1 X164.700 Y149.200 E37.14133
G1 X65.300 Y149.200 E43.78179
G1 X65.300 Y140.860 E44.33894
G1 X65.700 Y140.811 F7800.000
G1 E42.33894 F1800.00000
G92 E0
G1 Z0.500 F7800.000
G1 X163.468 Y143.123
G1 Z0.300
G1 E2.00000 F1800.00000
G1 F2400.000
G1 X162.618 Y142.273 E2.08084
G1 X161.856 Y142.273 E2.13216
G1 X163.227 Y143.644 E2.26264
G1 X163.227 Y144.407 E2.31396
G1 X161.093 Y142.273 E2.51702
G1 X160.330 Y142.273 E2.56834
G1 X163.227 Y145.170 E2.84398
G1 X163.227 Y145.933 E2.89530
G1 X159.567 Y142.273 E3.24351
G1 X158.804 Y142.273 E3.29482
G1 X163.227 Y146.696 E3.71561
G1 X163.227 Y147.458 E3.76693
G1 X158.042 Y142.273 E4.26029
G1 X157.279 Y142.273 E4.31161
G1 X162.733 Y147.727 E4.83052
G1 X161.970 Y147.727 E4.88184
G1 X156.516 Y142.273 E5.40075
G1 X155.753 Y142.273 E5.45207
G1 X161.207 Y147.727 E5.97099
G1 X160.444 Y147.727 E6.02231
G1 X154.990 Y142.273 E6.54122
G1 X154.227 Y142.273 E6.59254
G1 X159.682 Y147.727 E7.11145
G1 X158.919 Y147.727 E7.16277
G1 X153.465 Y142.273 E7.68169
G1 X152.702 Y142.273 E7.73300
G1 X158.156 Y147.727 E8.25192
G1 X157.393 Y147.727 E8.30324
G1 X151.939 Y142.273 E8.82215
G1 X151.176 Y142.273 E8.87347
G1 X156.630 Y147.727 E9.39239
G1 X155.868 Y147.727 E9.44370
G1 X150.413 Y142.273 E9.96262
G1 X149.651 Y142.273 E10.01394
G1 X155.105 Y147.727 E10.53285
G1 X154.342 Y147.727 E10.58417
G1 X148.888 Y142.273 E11.10308
G1 X148.125 Y142.273 E11.15440
G1 X153.579 Y147.727 E11.67332
G1 X152.816 Y147.727 E11.72464
G1 X147.362 Y142.273 E12.24355
G1 X146.599 Y142.273 E12.29487
G1 X152.053 Y147.727 E12.81378
G1 X151.291 Y147.727 E12.86510
G1 X145.837 Y142.273 E13.38402
G1 X145.074 Y142.273 E13.43533
G1 X150.528 Y147.727 E13.95425
G1 X149.765 Y147.727 E14.00557
G1 X144.311 Y142.273 E14.52448
G1 X143.548 Y142.273 E14.57580
G1 X149.002 Y147.727 E15.09471
G1 X148.239 Y147.727 E15.14603
G1 X142.785 Y142.273 E15.66495
G1 X142.023 Y142.273 E15.71627
G1 X147.477 Y147.727 E16.23518
G1 X146.714 Y147.727 E16.28650
G1 X141.260 Y142.273 E16.80541
G1 X140.497 Y142.273 E16.85673
G1 X145.951 Y147.727 E17.37565
G1 X145.188 Y147.727 E17.42697
G1 X139.734 Y142.273 E17.94588
G1 X138.971 Y142.273 E17.99720
G1 X144.425 Y147.727 E18.51611
G1 X143.663 Y147.727 E18.56743
G1 X138.208 Y142.273 E19.08635
G1 X137.446 Y142.273 E19.13766
G1 X142.900 Y147.727 E19.65658
G1 X142.137 Y147.727 E19.70790
G1 X136.683 Y142.273 E20.22681
G1 X135.920 Y142.273 E20.27813
G1 X141.374 Y147.727 E20.79704
G1 X140.611 Y147.727 E20.84836
G1 X135.157 Y142.273 E21.36728
G1 X134.394 Y142.273 E21.41860
G1 X139.849 Y147.727 E21.93751
G1 X139.086 Y147.727 E21.98883
G1 X133.632 Y142.273 E22.50774
G1 X132.869 Y142.273 E22.55906
G1 X138.323 Y147.727 E23.07798
G1 X137.560 Y147.727 E23.12929
G1 X132.106 Y142.273 E23.64821
G1 X131.343 Y142.273 E23.69953
G1 X136.797 Y147.727 E24.21844
G1 X136.034 Y147.727 E24.26976
G1 X130.580 Y142.273 E24.78868
G1 X129.818 Y142.273 E24.83999
G1 X135.272 Y147.727 E25.35891
G1 X134.509 Y147.727 E25.41023
G1 X129.055 Y142.273 E25.92914
G1 X128.292 Y142.273 E25.98046
G1 X133.746 Y147.727 E26.49937
G1 X132.983 Y147.727 E26.55069
G1 X127.529 Y142.273 E27.06961
G1 X126.766 Y142.273 E27.12093
G1 X132.220 Y147.727 E27.63984
G1 X131.458 Y147.727 E27.69116
G1 X126.004 Y142.273 E28.21007
G1 X125.241 Y142.273 E28.26139
G1 X130.695 Y147.727 E28.78031
G1 X129.932 Y147.727 E28.83162
G1 X124.478 Y142.273 E29.35054
G1 X123.715 Y142.273 E29.40186
G1 X129.169 Y147.727 E29.92077
G1 X128.406 Y147.727 E29.97209
G1 X122.952 Y142.273 E30.49100
G1 X122.189 Y142.273 E30.54232
G1 X127.644 Y147.727 E31.06124
G1 X126.881 Y147.727 E31.11256
G1 X121.427 Y142.273 E31.63147
G1 X120.664 Y142.273 E31.68279
G1 X126.118 Y147.727 E32.20170
G1 X125.355 Y147.727 E32.25302
G1 X119.901 Y142.273 E32.77194
G1 X119.138 Y142.273 E32.82325
G1 X124.592 Y147.727 E33.34217
G1 X123.830 Y147.727 E33.39349
G1 X118.375 Y142.273 E33.91240
G1 X117.613 Y142.273 E33.96372
G1 X123.067 Y147.727 E34.48264
G1 X122.304 Y147.727 E34.53395
G1 X116.850 Y142.273 E35.05287
G1 X116.087 Y142.273 E35.10419
G1 X121.541 Y147.727 E35.62310
G1 X120.778 Y147.727 E35.67442
G1 X115.324 Y142.273 E36.19333
G1 X114.561 Y142.273 E36.24465
G1 X120.015 Y147.727 E36.76357
G1 X119.253 Y147.727 E36.81489
G1 X113.799 Y142.273 E37.33380
G1 X113.036 Y142.273 E37.38512
G1 X118.490 Y147.727 E37.90403
G1 X117.727 Y147.727 E37.95535
G1 X112.273 Y142.273 E38.47427
G1 X111.510 Y142.273 E38.52558
G1 X116.964 Y147.727 E39.04450
G1 X116.201 Y147.727 E39.09582
G1 X110.747 Y142.273 E39.61473
G1 X109.985 Y142.273 E39.66605
G1 X115.439 Y147.727 E40.18496
G1 X114.676 Y147.727 E40.23628
G1 X109.222 Y142.273 E40.75520
G1 X108.459 Y142.273 E40.80652
G1 X113.913 Y147.727 E41.32543
G1 X113.150 Y147.727 E41.37675
G1 X107.696 Y142.273 E41.89566
G1 X106.933 Y142.273 E41.94698
G1 X112.387 Y147.727 E42.46590
G1 X111.625 Y147.727 E42.51721
G1 X106.170 Y142.273 E43.03613
G1 X105.408 Y142.273 E43.08745
G1 X110.862 Y147.727 E43.60636
G1 X110.099 Y147.727 E43.65768
G1 X104.645 Y142.273 E44.17659
G1 X103.882 Y142.273 E44.22791
G1 X109.336 Y147.727 E44.74683
G1 X108.573 Y147.727 E44.79815
G1 X103.119 Y142.273 E45.31706
G1 X102.356 Y142.273 E45.36838
G1 X107.811 Y147.727 E45.88729
G1 X107.048 Y147.727 E45.93861
G1 X101.594 Y142.273 E46.45753
G1 X100.831 Y142.273 E46.50884
G1 X106.285 Y147.727 E47.02776
G1 X105.522 Y147.727 E47.07908
G1 X100.068 Y142.273 E47.59799
G1 X99.305 Y142.273 E47.64931
G1 X104.759 Y147.727 E48.16823
G1 X103.996 Y147.727 E48.21954
G1 X98.542 Y142.273 E48.73846
G1 X97.780 Y142.273 E48.78978
G1 X103.234 Y147.727 E49.30869
G1 X102.471 Y147.727 E49.36001
G1 X97.017 Y142.273 E49.87892
G1 X96.254 Y142.273 E49.93024
G1 X101.708 Y147.727 E50.44916
G1 X100.945 Y147.727 E50.50048
G1 X95.491 Y142.273 E51.01939
G1 X94.728 Y142.273 E51.07071
G1 X100.182 Y147.727 E51.58962
G1 X99.420 Y147.727 E51.64094
G1 X93.966 Y142.273 E52.15986
G1 X93.203 Y142.273 E52.21117
G1 X98.657 Y147.727 E52.73009
G1 X97.894 Y147.727 E52.78141
G1 X92.440 Y142.273 E53.30032
G1 X91.677 Y142.273 E53.35164
G1 X97.131 Y147.727 E53.87056
G1 X96.368 Y147.727 E53.92187
G1 X90.914 Y142.273 E54.44079
G1 X90.151 Y142.273 E54.49211
G1 X95.606 Y147.727 E55.01102
G1 X94.843 Y147.727 E55.06234
G1 X89.389 Y142.273 E55.58125
G1 X88.626 Y142.273 E55.63257
G1 X94.080 Y147.727 E56.15149
G1 X93.317 Y147.727 E56.20281
G1 X87.863 Y142.273 E56.72172
G1 X87.100 Y142.273 E56.77304
G1 X92.554 Y147.727 E57.29195
G1 X91.792 Y147.727 E57.34327
G1 X86.337 Y142.273 E57.86219
G1 X85.575 Y142.273 E57.91350
G1 X91.029 Y147.727 E58.43242
G1 X90.266 Y147.727 E58.48374
G1 X84.812 Y142.273 E59.00265
G1 X84.049 Y142.273 E59.05397
G1 X89.503 Y147.727 E59.57288
G1 X88.740 Y147.727 E59.62420
G1 X83.286 Y142.273 E60.14312
G1 X82.523 Y142.273 E60.19444
G1 X87.977 Y147.727 E60.71335
G1 X87.215 Y147.727 E60.76467
G1 X81.761 Y142.273 E61.28358
G1 X80.998 Y142.273 E61.33490
G1 X86.452 Y147.727 E61.85382
G1 X85.689 Y147.727 E61.90514
G1 X80.235 Y142.273 E62.42405
G1 X79.472 Y142.273 E62.47537
G1 X84.926 Y147.727 E62.99428
G1 X84.163 Y147.727 E63.04560
G1 X78.709 Y142.273 E63.56452
G1 X77.946 Y142.273 E63.61583
G1 X83.401 Y147.727 E64.13475
G1 X82.638 Y147.727 E64.18607
G1 X77.184 Y142.273 E64.70498
G1 X76.421 Y142.273 E64.75630
G1 X81.875 Y147.727 E65.27521
G1 X81.112 Y147.727 E65.32653
G1 X75.658 Y142.273 E65.84545
G1 X74.895 Y142.273 E65.89677
G1 X80.349 Y147.727 E66.41568
G1 X79.587 Y147.727 E66.46700
G1 X74.132 Y142.273 E66.98591
G1 X73.370 Y142.273 E67.03723
G1 X78.824 Y147.727 E67.55615
G1 X78.061 Y147.727 E67.60747
G1 X72.607 Y142.273 E68.12638
G1 X71.844 Y142.273 E68.17770
G1 X77.298 Y147.727 E68.69661
G1 X76.535 Y147.727 E68.74793
G1 X71.081 Y142.273 E69.26685
G1 X70.318 Y142.273 E69.31816
G1 X75.773 Y147.727 E69.83708
G1 X75.010 Y147.727 E69.88840
G1 X69.556 Y142.273 E70.40731
G1 X68.793 Y142.273 E70.45863
G1 X74.247 Y147.727 E70.97754
G1 X73.484 Y147.727 E71.02886
G1 X68.030 Y142.273 E71.54778
G1 X67.267 Y142.273 E71.59910
G1 X72.721 Y147.727 E72.11801
G1 X71.958 Y147.727 E72.16933
G1 X66.773 Y142.542 E72.66269
G1 X66.773 Y143.304 E72.71401
G1 X71.196 Y147.727 E73.13479
G1 X70.433 Y147.727 E73.18611
G1 X66.773 Y144.067 E73.53432
G1 X66.773 Y144.830 E73.58564
G1 X69.670 Y147.727 E73.86128
G1 X68.907 Y147.727 E73.91259
G1 X66.773 Y145.593 E74.11565
G1 X66.773 Y146.356 E74.16697
G1 X68.144 Y147.727 E74.29746
G1 X67.382 Y147.727 E74.34878
G1 X66.532 Y146.877 E74.42962
;LAYER:1
M117 Layer number: 1
G1 E72.42962 F1800.00000
G92 E0
G1 Z0.500 F7800.000
G1 Z0.600
G1 X66.371 Y148.129
G1 E2.00000 F1800.00000
G1 F2987.195
G1 X66.371 Y141.871 E2.41804
G1 X163.629 Y141.871 E8.91537
G1 X163.629 Y148.129 E9.33340
G1 X66.431 Y148.129 E15.82672
G1 X65.836 Y148.664 F7800.000
G1 F2987.195
G1 X65.836 Y141.336 E16.31632
G1 X164.164 Y141.336 E22.88522
G1 X164.164 Y148.664 E23.37482
G1 X65.896 Y148.664 E29.93970
G1 X65.300 Y149.200 F7800.000
G1 F2987.195
G1 X65.300 Y140.800 E30.50087
G1 X164.700 Y140.800 E37.14133
G1 X164.700 Y149.200 E37.70249
G1 X65.360 Y149.200 E44.33894
G1 X65.490 Y148.848 F7800.000
G1 E42.33894 F1800.00000
G92 E0
G1 Z0.800 F7800.000
G1 X162.377 Y147.968
G1 Z0.600
G1 E2.00000 F1800.00000
G1 F2966.325
G1 X163.227 Y147.118 E2.08084
G1 X163.227 Y146.356 E2.13216
G1 X161.856 Y147.727 E2.26264
G1 X161.093 Y147.727 E2.31396
G1 X163.227 Y145.593 E2.51702
G1 X163.227 Y144.830 E2.56834
G1 X160.330 Y147.727 E2.84398
G1 X159.567 Y147.727 E2.89530
G1 X163.227 Y144.067 E3.24351
G1 X163.227 Y143.304 E3.29482
G1 X158.804 Y147.727 E3.71561
G1 X158.042 Y147.727 E3.76693
G1 X163.227 Y142.542 E4.26029
G1 X163.227 Y142.273 E4.27836
G1 X162.733 Y142.273 E4.31161
G1 X157.279 Y147.727 E4.83052
G1 X156.516 Y147.727 E4.88184
G1 X161.970 Y142.273 E5.40075
G1 X161.207 Y142.273 E5.45207
G1 X155.753 Y147.727 E5.97098
G1 X154.990 Y147.727 E6.02230
G1 X160.444 Y142.273 E6.54121
G1 X159.682 Y142.273 E6.59253
G1 X154.227 Y147.727 E7.11144
G1 X153.465 Y147.727 E7.16276
G1 X158.919 Y142.273 E7.68168
G1 X158.156 Y142.273 E7.73299
G1 X152.702 Y147.727 E8.25191
G1 X151.939 Y147.727 E8.30322
G1 X157.393 Y142.273 E8.82214
G1 X156.630 Y142.273 E8.87346
G1 X151.176 Y147.727 E9.39237
G1 X150.413 Y147.727 E9.44369
G1 X155.868 Y142.273 E9.96260
G1 X155.105 Y142.273 E10.01392
G1 X149.651 Y147.727 E10.53283
G1 X148.888 Y147.727 E10.58415
G1 X154.342 Y142.273 E11.10306
G1 X153.579 Y142.273 E11.15438
G1 X148.125 Y147.727 E11.67329
G1 X147.362 Y147.727 E11.72461
G1 X152.816 Y142.273 E12.24353
G1 X152.053 Y142.273 E12.29484
G1 X146.599 Y147.727 E12.81376
G1 X145.837 Y147.727 E12.86507
G1 X151.291 Y142.273 E13.38399
G1 X150.528 Y142.273 E13.43531
G1 X145.074 Y147.727 E13.95422
G1 X144.311 Y147.727 E14.00554
G1 X149.765 Y142.273 E14.52445
G1 X149.002 Y142.273 E14.57577
G1 X143.548 Y147.727 E15.09468
G1 X142.785 Y147.727 E15.14600
G1 X148.239 Y142.273 E15.66491
G1 X147.477 Y142.273 E15.71623
G1 X142.023 Y147.727 E16.23514
G1 X141.260 Y147.727 E16.28646
G1 X146.714 Y142.273 E16.80537
G1 X145.951 Y142.273 E16.85669
G1 X140.497 Y147.727 E17.37561
G1 X139.734 Y147.727 E17.42692
G1 X145.188 Y142.273 E17.94584
G1 X144.425 Y142.273 E17.99716
G1 X138.971 Y147.727 E18.51607
G1 X138.208 Y147.727 E18.56739
G1 X143.663 Y142.273 E19.08630
G1 X142.900 Y142.273 E19.13762
G1 X137.446 Y147.727 E19.65653
G1 X136.683 Y147.727 E19.70785
G1 X142.137 Y142.273 E20.22676
G1 X141.374 Y142.273 E20.27808
G1 X135.920 Y147.727 E20.79699
G1 X135.157 Y147.727 E20.84831
G1 X140.611 Y142.273 E21.36722
G1 X139.849 Y142.273 E21.41854
G1 X134.394 Y147.727 E21.93746
G1 X133.632 Y147.727 E21.98877
G1 X139.086 Y142.273 E22.50769
G1 X138.323 Y142.273 E22.55900
G1 X132.869 Y147.727 E23.07792
G1 X132.106 Y147.727 E23.12924
G1 X137.560 Y142.273 E23.64815
G1 X136.797 Y142.273 E23.69947
G1 X131.343 Y147.727 E24.21838
G1 X130.580 Y147.727 E24.26970
G1 X136.034 Y142.273 E24.78861
G1 X135.272 Y142.273 E24.83993
G1 X129.818 Y147.727 E25.35884
G1 X129.055 Y147.727 E25.41016
G1 X134.509 Y142.273 E25.92907
G1 X133.746 Y142.273 E25.98039
G1 X128.292 Y147.727 E26.49930
G1 X127.529 Y147.727 E26.55062
G1 X132.983 Y142.273 E27.06954
G1 X132.220 Y142.273 E27.12085
G1 X126.766 Y147.727 E27.63977
G1 X126.004 Y147.727 E27.69109
G1 X131.458 Y142.273 E28.21000
G1 X130.695 Y142.273 E28.26132
G1 X125.241 Y147.727 E28.78023
G1 X124.478 Y147.727 E28.83155
